public/avatar/body/164.svg

<svg xmlns:xlink="http://www.w3.org/1999/xlink" height="82" width="84.85" xmlns="http://www.w3.org/2000/svg"><g transform="translate(37.4 42.25)"><use height="38" transform="translate(-11.95 -17.45)" width="32.05" xlink:href="#a"/><use height="38.95" transform="translate(-12.45 -17.95)" width="33.05" xlink:href="#b"/><use height="18.85" transform="translate(-12.3 5.05)" width="33" xlink:href="#c"/><use height="10.9" transform="translate(13.5 -1.6)" width="11.95" xlink:href="#d"/><use height="10.9" transform="matrix(-1 0 0 1 -5.5 -1.6)" width="11.95" xlink:href="#d"/><use height="13.9" transform="translate(-11.4 7.6)" width="31.15" xlink:href="#e"/></g><defs><use height="38" width="32.05" xlink:href="#f" id="a"/><use height="38.95" width="33.05" xlink:href="#g" id="b"/><use height="10.9" width="11.95" xlink:href="#h" id="d"/><g id="c" fill-rule="evenodd"><path d="m-10.95 8.2-.35 10.5q1.2.6 2.35 1.15Q-.5 23.4 8.6 22.45q6.7-.1 10.85-4.7L18.8 8.3h1.15l.75 9.8q-2.15 2.55-5.25 3.6-8.7 3.25-17.85 1.75-5.45-.65-9.9-4.1l.2-11.15h1.15M15.2 6.35 12 7.65q-10.05 3.4-19-1.8l.5-.7 3.45 1.5q9.5 3.4 18.25-1.6v1.3" fill="#440202" transform="translate(12.3 -5.05)"/><path d="m18.8 8.3.65 9.45q-4.15 4.6-10.85 4.7-9.1.95-17.55-2.6-1.15-.55-2.35-1.15l.35-10.5L-7 5.85q8.95 5.2 19 1.8l3.2-1.3 3.6 1.95" fill="#fff" transform="translate(12.3 -5.05)"/></g><g id="h" fill-rule="evenodd"><path d="m10.55 6.4-.3-.65Q9.2 3.9 7.75 2.3l-.95-.55-1-.5-.75.8q-2.3 1.45-3.5 3.9l-.45 1L2.55 9.5 1.9 9 .75 7.8l-.7-1.3q2-3.85 5.6-6.4l.5.1q4.3 2.15 5.85 7Q8.8 9.65 4.95 11l-.7-.4 6.15-3.55.15-.2V6.4" fill="#440202" transform="translate(-.05 -.1)"/><path d="M10.4 7.05 4.25 10.6l-.9.35-.8-1.45L1.1 6.95l.45-1q1.2-2.45 3.5-3.9L1.85 6.1l-.2.45 5.6-2-1.75 3.5 3.25-.55 1.65-.45" fill="#fff" transform="translate(-.05 -.1)"/><path d="M10.55 6.4v.45l-.15.2-1.65.45-3.25.55 1.75-3.5-5.6 2 .2-.45 3.2-4.05.75-.8 1 .5.95.55-1.5-.8-4 4.5L7.6 4.2 6.3 7.5l2.15-.4 2.1-.7" fill="#4c0301" transform="translate(-.05 -.1)"/><path d="M7.75 2.3q1.45 1.6 2.5 3.45l.3.65-2.1.7-2.15.4 1.3-3.3L2.25 6l4-4.5 1.5.8m-.85-.45q-1.4.9-2.3 2l-.65.85q2-1.2 4.4-1.5L6.9 1.85M8.95 3.9l-1.6 2.65 2.75-.9-.2-.4-.95-1.35" fill="#f87006" transform="translate(-.05 -.1)"/><path d="m8.95 3.9.95 1.35.2.4-2.75.9 1.6-2.65M6.9 1.85 8.35 3.2q-2.4.3-4.4 1.5l.65-.85q.9-1.1 2.3-2" fill="#ff0" transform="translate(-.05 -.1)"/></g><g id="e"><path d="m5.75 11.8-.25-.25-.25.1-2.5-.1-1.4.45-3.8-2.15 4.8 1L2.3 9.8l1.8.75 1.5-.7-.1.95 4.55-1.1.35-.05q-.4.9-1.35 1.35l-1.15.5 1.4-1.25-3.1 1 1.2.5-.8.3-.85-.25m-3.55-.45-3.45-.85 2.6 1.35.85-.5m5 5.1q2.8-4.55 6.4-8.7 1.45 3.8-1.65 6.45 3.55-1.15 4.45-4.65-.05 6.05-5.9 7.05l3 .5 1.2-.8q-2.25 3.1-5.9 1.9l-.35.3.25.75q.95 1.55 2.4.85-2.15 2.5-4.05-.55l.55.55.6.4.5.05-1.5-2.05.9-.9 3.55-.15-3-.8 1.45-.4q2.05-.5 4-1.65l-2.4.6-2.45.25 1.2-.5q.8-.3 1.3-1.2l.95-1.7-5.5 4.4m-4.6-3.8.45-.25q.5.15 1 .45 1 .55 1.55 1.7l-.8-.25-.5.6.05-1.4-1.75-.85m1.7 2.4q1.1 2.4.85 5.05L5 21.35l-.7-.1-1.6-.75-.45-.4 2 .7.05-5.75M1.1 18.5l-1.6 2.05q1.15-.25 1.8-1.15.65-1 .45-2.25l-6.25-5.1q1.3 1.95 3.4 3.4l-3.6-.35 3.9 1.6-2.85.75 3.75.15 1 .9m16.5.15.7.15.85-.45-2.2-.75.3.65-.9-1.2 2.55.5-2.25-3.6 2.8.7.1 3.6-1.45.9-.5-.5m1.65-2.05q-.65-1-1.55-1.7l1.55 2.2v-.5m-29.9 2.6-.6-.4.1-3.55.95-.35 1.85-.25-2.25 3.45h.7l1.85-.5-1.75 2.15-.55-.35.6.2 1-1.45-1.9 1.05m-.35-1.4-.1.55q.75-.8 1.2-1.95l.3-.9-.5.65-.9 1.65m7.8 1.95 2.3-.05.75-.5-.45-1q-3.7 1.4-5.9-1.9 2.05 1.4 4.15.3-5.55-1.35-5.9-7.05 1.2 3.3 4.5 4.65-2.45-2.7-1.65-6.45Q-.5 12.3 2.45 18.1.9 22.05-2.5 20.2l-.7-.45" fill="#f87006" fill-rule="evenodd" transform="translate(11.4 -7.6)"/><path d="m7.9 11.5-.5.25-1.2-.5 3.1-1-1.4 1.25m-5.7-.15-.85.5-2.6-1.35 3.45.85m5 5.1 5.5-4.4-.95 1.7q-.5.9-1.3 1.2l-1.2.5 2.45-.25 2.4-.6q-1.95 1.15-4 1.65l-1.45.4 3 .8-3.55.15-.9.9 1.5 2.05-.5-.05-.6-.4-.55-.55.15-3.1M1.1 18.5l-1-.9-3.75-.15 2.85-.75-3.9-1.6 3.6.35q-2.1-1.45-3.4-3.4l6.25 5.1q.2 1.25-.45 2.25-.65.9-1.8 1.15l1.6-2.05m16.15-.25-.3-.65 2.2.75-.85.45-.7-.15-.35-.4m2-1.65v.5l-1.55-2.2q.9.7 1.55 1.7m-29.6 2.8-.3-.2 1.9-1.05-1 1.45-.6-.2m-.65-1.6.9-1.65.5-.65-.3.9q-.45 1.15-1.2 1.95l.1-.55" fill="#ff0" fill-rule="evenodd" transform="translate(11.4 -7.6)"/><path d="m10.4 9.65.8-.05Q9 11.35 6.55 12.5l-.8-.7.85.25.8-.3.5-.25 1.15-.5q.95-.45 1.35-1.35m-5.15 2q-4.3 1.75-7.5-1.45l-.9-1.05 5.25 1.3.25-1h.5l.85.35.35.3 1.3-.65.25.1.25.9 4.2-.75-4.55 1.1.1-.95-1.5.7-1.8-.75.05 1.05-4.8-1L1.35 12l1.4-.45 2.5.1M15.7 13.5l3.95.85.1 4-1.8 1.2-1.45-1.65-1.3-1.75 3.05.95-1.6-2.5-.95-1.1m1.9 5.15.5.5 1.45-.9-.1-3.6-2.8-.7 2.25 3.6-2.55-.5.9 1.2.35.4m-28.95-3.6 1.65-.55 2.3-.4-2.55 3.55 1.25-.3 1.8-.65-2.6 3.3-1.9-1.05.05-3.9m.7 4.15.3.2.55.35 1.75-2.15-1.85.5h-.7l2.25-3.45-1.85.25-.95.35-.1 3.55.6.4" fill="#4c0301" fill-rule="evenodd" transform="translate(11.4 -7.6)"/><path d="M18.45 11.95q1.9 3.05 4.05.55-1.45.7-2.4-.85l-.25-.75.35-.3q3.65 1.2 5.9-1.9l-1.2.8-3-.5q5.85-1 5.9-7.05-.9 3.5-4.45 4.65Q26.45 3.95 25 .15q-3.6 4.15-6.4 8.7l-.15 3.1M14 5.05l1.75.85-.05 1.4.5-.6.8.25q-.55-1.15-1.55-1.7-.5-.3-1-.45l-.45.25m1.7 2.4-.05-.1.05-.05v.15q1.1 2.4.85 5.05l-.15 1.25-.7-.1-1.6-.75-.45-.4 2 .7.05-5.75m6.8 5.05.15-.2-.1.15-.05.05m-14.3-.35 2.3-.05.75-.5-.45-1Q7.1 12 4.9 8.7q2.05 1.4 4.15.3-5.55-1.35-5.9-7.05 1.2 3.3 4.5 4.65Q5.2 3.9 6 .15q4.9 4.55 7.85 10.35-1.55 3.95-4.95 2.1l-.7-.45" fill="none" stroke="#4c0301" stroke-linecap="round" stroke-linejoin="round" stroke-width=".35"/></g><path d="M27.35 7.4q2.15 4.15 3.55 8.75 1.45 4.7 1.15 9.5-.35 4.95-4.2 8.1-3.8 3.2-8.75 4.05l-2.6.2q-3.6 0-7.05-1.15-4.65-1.6-7.1-5.5Q-.2 27.4.05 23q.2-4.4 2-9.3Q3.85 8.75 7 5.05 10.1 1.3 14.7.1l1.8-.1q1.9.05 3.7.8 4.75 2.05 7.15 6.6" fill="#ffc192" fill-rule="evenodd" transform="translate(-.05)" id="f"/><path d="M27.35 7.4Q24.95 2.85 20.2.8 17.55-.3 14.7.1 10.1 1.3 7 5.05q-3.15 3.7-4.95 8.65-1.8 4.9-2 9.3-.25 4.4 2.3 8.35 2.45 3.9 7.1 5.5 4.65 1.55 9.65.95 4.95-.85 8.75-4.05 3.85-3.15 4.2-8.1.3-4.8-1.15-9.5-1.4-4.6-3.55-8.75Z" fill="none" stroke="#333" stroke-linecap="round" stroke-linejoin="round" transform="translate(.45 .5)" id="g"/></defs></svg>

<?xml version="1.0" encoding="UTF-8" standalone="no"?>
<svg xmlns:xlink="http://www.w3.org/1999/xlink" height="82.0px" width="84.85px" xmlns="http://www.w3.org/2000/svg">
  <g transform="matrix(1.0, 0.0, 0.0, 1.0, 37.4, 42.25)">
    <use height="38.0" transform="matrix(1.0, 0.0, 0.0, 1.0, -11.95, -17.45)" width="32.05" xlink:href="#sprite0"/>
    <use height="38.95" transform="matrix(1.0, 0.0, 0.0, 1.0, -12.45, -17.95)" width="33.05" xlink:href="#sprite1"/>
    <use height="18.85" transform="matrix(1.0, 0.0, 0.0, 1.0, -12.3, 5.05)" width="33.0" xlink:href="#shape2"/>
    <use height="10.9" transform="matrix(1.0, 0.0, 0.0, 1.0, 13.5, -1.6)" width="11.95" xlink:href="#sprite2"/>
    <use height="10.9" transform="matrix(-1.0, 0.0, 0.0, 1.0, -5.5, -1.6)" width="11.95" xlink:href="#sprite2"/>
    <use height="13.9" transform="matrix(1.0, 0.0, 0.0, 1.0, -11.4, 7.6)" width="31.15" xlink:href="#shape4"/>
  </g>
  <defs>
    <g id="sprite0" transform="matrix(1.0, 0.0, 0.0, 1.0, -0.05, 0.0)">
      <use height="38.0" transform="matrix(1.0, 0.0, 0.0, 1.0, 0.05, 0.0)" width="32.05" xlink:href="#shape0"/>
    </g>
    <g id="shape0" transform="matrix(1.0, 0.0, 0.0, 1.0, -0.05, 0.0)">
      <path d="M27.35 7.4 Q29.5 11.55 30.9 16.15 32.35 20.85 32.05 25.65 31.7 30.6 27.85 33.75 24.05 36.95 19.1 37.8 L16.5 38.0 Q12.9 38.0 9.45 36.85 4.8 35.25 2.35 31.35 -0.2 27.4 0.05 23.0 0.25 18.6 2.05 13.7 3.85 8.75 7.0 5.05 10.1 1.3 14.7 0.1 L16.5 0.0 Q18.4 0.05 20.2 0.8 24.95 2.85 27.35 7.4" fill="#ffc192" fill-rule="evenodd" stroke="none"/>
    </g>
    <g id="sprite1" transform="matrix(1.0, 0.0, 0.0, 1.0, 0.45, 0.5)">
      <use height="38.95" transform="matrix(1.0, 0.0, 0.0, 1.0, -0.45, -0.5)" width="33.05" xlink:href="#shape1"/>
    </g>
    <g id="shape1" transform="matrix(1.0, 0.0, 0.0, 1.0, 0.45, 0.5)">
      <path d="M27.35 7.4 Q24.95 2.85 20.2 0.8 17.55 -0.3 14.7 0.1 10.1 1.3 7.0 5.05 3.85 8.75 2.05 13.7 0.25 18.6 0.05 23.0 -0.2 27.4 2.35 31.35 4.8 35.25 9.45 36.85 14.1 38.4 19.1 37.8 24.05 36.95 27.85 33.75 31.7 30.6 32.05 25.65 32.35 20.85 30.9 16.15 29.5 11.55 27.35 7.4 Z" fill="none" stroke="#333333" stroke-linecap="round" stroke-linejoin="round" stroke-width="1.0"/>
    </g>
    <g id="shape2" transform="matrix(1.0, 0.0, 0.0, 1.0, 12.3, -5.05)">
      <path d="M-10.95 8.2 L-11.3 18.7 Q-10.1 19.3 -8.95 19.85 -0.5 23.4 8.6 22.45 15.3 22.35 19.45 17.75 L18.8 8.3 19.95 8.3 20.7 18.1 Q18.55 20.65 15.45 21.7 6.75 24.95 -2.4 23.45 -7.85 22.8 -12.3 19.35 L-12.1 8.2 -10.95 8.2 M15.2 6.35 L12.0 7.65 Q1.95 11.05 -7.0 5.85 L-6.5 5.15 -3.05 6.65 Q6.45 10.05 15.2 5.05 L15.2 6.35" fill="#440202" fill-rule="evenodd" stroke="none"/>
      <path d="M18.8 8.3 L19.45 17.75 Q15.3 22.35 8.6 22.45 -0.5 23.4 -8.95 19.85 -10.1 19.3 -11.3 18.7 L-10.95 8.2 -7.0 5.85 Q1.95 11.05 12.0 7.65 L15.2 6.35 18.8 8.3" fill="#ffffff" fill-rule="evenodd" stroke="none"/>
    </g>
    <g id="sprite2" transform="matrix(1.0, 0.0, 0.0, 1.0, -0.05, -0.1)">
      <use height="10.9" transform="matrix(1.0, 0.0, 0.0, 1.0, 0.05, 0.1)" width="11.95" xlink:href="#shape3"/>
    </g>
    <g id="shape3" transform="matrix(1.0, 0.0, 0.0, 1.0, -0.05, -0.1)">
      <path d="M10.55 6.4 L10.25 5.75 Q9.2 3.9 7.75 2.3 L6.8 1.75 5.8 1.25 5.05 2.05 Q2.75 3.5 1.55 5.95 L1.1 6.95 2.55 9.5 1.9 9.0 0.75 7.8 0.05 6.5 Q2.05 2.65 5.65 0.1 L6.15 0.2 Q10.45 2.35 12.0 7.2 8.8 9.65 4.95 11.0 L4.25 10.6 10.4 7.05 10.55 6.85 10.55 6.4" fill="#440202" fill-rule="evenodd" stroke="none"/>
      <path d="M10.4 7.05 L4.25 10.6 3.35 10.95 2.55 9.5 1.1 6.95 1.55 5.95 Q2.75 3.5 5.05 2.05 L1.85 6.1 1.65 6.55 7.25 4.55 5.5 8.05 8.75 7.5 10.4 7.05" fill="#ffffff" fill-rule="evenodd" stroke="none"/>
      <path d="M10.55 6.4 L10.55 6.85 10.4 7.05 8.75 7.5 5.5 8.05 7.25 4.55 1.65 6.55 1.85 6.1 5.05 2.05 5.8 1.25 6.8 1.75 7.75 2.3 6.25 1.5 2.25 6.0 7.6 4.2 6.3 7.5 8.45 7.1 10.55 6.4" fill="#4c0301" fill-rule="evenodd" stroke="none"/>
      <path d="M7.75 2.3 Q9.2 3.9 10.25 5.75 L10.55 6.4 8.45 7.1 6.3 7.5 7.6 4.2 2.25 6.0 6.25 1.5 7.75 2.3 M6.9 1.85 Q5.5 2.75 4.6 3.85 L3.95 4.7 Q5.95 3.5 8.35 3.2 L6.9 1.85 M8.95 3.9 L7.35 6.55 10.1 5.65 9.9 5.25 8.95 3.9" fill="#f87006" fill-rule="evenodd" stroke="none"/>
      <path d="M8.95 3.9 L9.9 5.25 10.1 5.65 7.35 6.55 8.95 3.9 M6.9 1.85 L8.35 3.2 Q5.95 3.5 3.95 4.7 L4.6 3.85 Q5.5 2.75 6.9 1.85" fill="#ffff00" fill-rule="evenodd" stroke="none"/>
    </g>
    <g id="shape4" transform="matrix(1.0, 0.0, 0.0, 1.0, 11.4, -7.6)">
      <path d="M5.75 11.8 L5.5 11.55 5.25 11.65 2.75 11.55 1.35 12.0 -2.45 9.85 2.35 10.85 2.3 9.8 4.1 10.55 5.6 9.85 5.5 10.8 10.05 9.7 10.4 9.65 Q10.0 10.55 9.05 11.0 L7.9 11.5 9.3 10.25 6.2 11.25 7.4 11.75 6.6 12.05 5.75 11.8 M2.2 11.35 L-1.25 10.5 1.35 11.85 2.2 11.35 M7.2 16.45 Q10.0 11.9 13.6 7.75 15.05 11.55 11.95 14.2 15.5 13.05 16.4 9.55 16.35 15.6 10.5 16.6 L13.5 17.1 14.7 16.3 Q12.45 19.4 8.8 18.2 L8.45 18.5 8.7 19.25 Q9.65 20.8 11.1 20.1 8.95 22.6 7.05 19.55 L7.6 20.1 8.2 20.5 8.7 20.55 7.2 18.5 8.1 17.6 11.65 17.45 8.65 16.65 10.1 16.25 Q12.15 15.75 14.1 14.6 L11.7 15.2 9.25 15.45 10.45 14.95 Q11.25 14.65 11.75 13.75 L12.7 12.05 7.2 16.45 M2.6 12.65 L3.05 12.4 Q3.55 12.55 4.05 12.85 5.05 13.4 5.6 14.55 L4.8 14.3 4.3 14.9 4.35 13.5 2.6 12.65 M4.3 15.05 Q5.4 17.45 5.15 20.1 L5.0 21.35 4.3 21.25 2.7 20.5 2.25 20.1 4.25 20.8 4.3 15.05 M1.1 18.5 L-0.5 20.55 Q0.65 20.3 1.3 19.4 1.95 18.4 1.75 17.15 L-4.5 12.05 Q-3.2 14.0 -1.1 15.45 L-4.7 15.1 -0.8 16.7 -3.65 17.45 0.1 17.6 1.1 18.5 M17.6 18.65 L18.3 18.8 19.15 18.35 16.95 17.6 17.25 18.25 16.35 17.05 18.9 17.55 16.65 13.95 19.45 14.65 19.55 18.25 18.1 19.15 17.6 18.65 M19.25 16.6 Q18.6 15.6 17.7 14.9 L19.25 17.1 19.25 16.6 M-10.65 19.2 L-11.25 18.8 -11.15 15.25 -10.2 14.9 -8.35 14.65 -10.6 18.1 -9.9 18.1 -8.05 17.6 -9.8 19.75 -10.35 19.4 -9.75 19.6 -8.75 18.15 -10.65 19.2 M-11.0 17.8 L-11.1 18.35 Q-10.35 17.55 -9.9 16.4 L-9.6 15.5 -10.1 16.15 -11.0 17.8 M-3.2 19.75 L-0.9 19.7 -0.15 19.2 -0.6 18.2 Q-4.3 19.6 -6.5 16.3 -4.45 17.7 -2.35 16.6 -7.9 15.25 -8.25 9.55 -7.05 12.85 -3.75 14.2 -6.2 11.5 -5.4 7.75 -0.5 12.3 2.45 18.1 0.9 22.05 -2.5 20.2 L-3.2 19.75" fill="#f87006" fill-rule="evenodd" stroke="none"/>
      <path d="M7.9 11.5 L7.4 11.75 6.2 11.25 9.3 10.25 7.9 11.5 M2.2 11.35 L1.35 11.85 -1.25 10.5 2.2 11.35 M7.2 16.45 L12.7 12.05 11.75 13.75 Q11.25 14.65 10.45 14.95 L9.25 15.45 11.7 15.2 14.1 14.6 Q12.15 15.75 10.1 16.25 L8.65 16.65 11.65 17.45 8.1 17.6 7.2 18.5 8.7 20.55 8.2 20.5 7.6 20.1 7.05 19.55 7.2 16.45 M1.1 18.5 L0.1 17.6 -3.65 17.45 -0.8 16.7 -4.7 15.1 -1.1 15.45 Q-3.2 14.0 -4.5 12.05 L1.75 17.15 Q1.95 18.4 1.3 19.4 0.65 20.3 -0.5 20.55 L1.1 18.5 M17.25 18.25 L16.95 17.6 19.15 18.35 18.3 18.8 17.6 18.65 17.25 18.25 M19.25 16.6 L19.25 17.1 17.7 14.9 Q18.6 15.6 19.25 16.6 M-10.35 19.4 L-10.65 19.2 -8.75 18.15 -9.75 19.6 -10.35 19.4 M-11.0 17.8 L-10.1 16.15 -9.6 15.5 -9.9 16.4 Q-10.35 17.55 -11.1 18.35 L-11.0 17.8" fill="#ffff00" fill-rule="evenodd" stroke="none"/>
      <path d="M10.4 9.65 L11.2 9.6 Q9.0 11.35 6.55 12.5 L5.75 11.8 6.6 12.05 7.4 11.75 7.9 11.5 9.05 11.0 Q10.0 10.55 10.4 9.65 M5.25 11.65 Q0.95 13.4 -2.25 10.2 L-3.15 9.15 2.1 10.45 2.35 9.45 2.85 9.45 3.7 9.8 4.05 10.1 5.35 9.45 5.6 9.55 5.85 10.45 10.05 9.7 5.5 10.8 5.6 9.85 4.1 10.55 2.3 9.8 2.35 10.85 -2.45 9.85 1.35 12.0 2.75 11.55 5.25 11.65 M15.7 13.5 L19.65 14.35 19.75 18.35 17.95 19.55 16.5 17.9 15.2 16.15 18.25 17.1 16.65 14.6 15.7 13.5 M17.6 18.65 L18.1 19.15 19.55 18.25 19.45 14.65 16.65 13.95 18.9 17.55 16.35 17.05 17.25 18.25 17.6 18.65 M-11.35 15.05 L-9.7 14.5 -7.4 14.1 -9.95 17.65 -8.7 17.35 -6.9 16.7 -9.5 20.0 -11.4 18.95 -11.35 15.05 M-10.65 19.2 L-10.35 19.4 -9.8 19.75 -8.05 17.6 -9.9 18.1 -10.6 18.1 -8.35 14.65 -10.2 14.9 -11.15 15.25 -11.25 18.8 -10.65 19.2" fill="#4c0301" fill-rule="evenodd" stroke="none"/>
      <path d="M7.05 19.55 Q8.95 22.6 11.1 20.1 9.65 20.8 8.7 19.25 L8.45 18.5 8.8 18.2 Q12.45 19.4 14.7 16.3 L13.5 17.1 10.5 16.6 Q16.35 15.6 16.4 9.55 15.5 13.05 11.95 14.2 15.05 11.55 13.6 7.75 10.0 11.9 7.2 16.45 L7.05 19.55 M2.6 12.65 L4.35 13.5 4.3 14.9 4.8 14.3 5.6 14.55 Q5.05 13.4 4.05 12.85 3.55 12.55 3.05 12.4 L2.6 12.65 M4.3 15.05 L4.25 14.95 4.3 14.9 4.3 15.05 Q5.4 17.45 5.15 20.1 L5.0 21.35 4.3 21.25 2.7 20.5 2.25 20.1 4.25 20.8 4.3 15.05 M11.1 20.1 L11.25 19.9 11.15 20.05 11.1 20.1 M-3.2 19.75 L-0.9 19.7 -0.15 19.2 -0.6 18.2 Q-4.3 19.6 -6.5 16.3 -4.45 17.7 -2.35 16.6 -7.9 15.25 -8.25 9.55 -7.05 12.85 -3.75 14.2 -6.2 11.5 -5.4 7.75 -0.5 12.3 2.45 18.1 0.9 22.05 -2.5 20.2 L-3.2 19.75" fill="none" stroke="#4c0301" stroke-linecap="round" stroke-linejoin="round" stroke-width="0.35000000000000003"/>
    </g>
  </defs>
</svg>
